app/img/icons/heart-small.svg

<svg width="14" height="14" viewBox="0 0 14 14" fill="none" xmlns="http://www.w3.org/2000/svg">
<path d="M6.99991 2.40454L6.37253 1.75967C4.89991 0.245917 2.19966 0.768293 1.22491 2.67142C0.767283 3.56654 0.664033 4.85892 1.49966 6.50829C2.30466 8.09642 3.97941 9.99867 6.99991 12.0707C10.0204 9.99867 11.6943 8.09642 12.5002 6.50829C13.3358 4.85804 13.2334 3.56654 12.7749 2.67142C11.8002 0.768293 9.09991 0.245043 7.62728 1.75879L6.99991 2.40454ZM6.99991 13.125C-6.41647 4.25954 2.86903 -2.65996 6.84591 1.00017C6.89841 1.04829 6.95003 1.09817 6.99991 1.14979C7.04928 1.09821 7.10065 1.04859 7.15391 1.00104C11.1299 -2.66171 20.4163 4.25867 6.99991 13.125Z" fill="#464646"/>
</svg>

<svg width="14" height="14" fill="none" xmlns="http://www.w3.org/2000/svg"><path d="M7 2.405l-.627-.645C4.9.246 2.2.768 1.225 2.67c-.458.897-.561 2.19.275 3.838.805 1.588 2.48 3.49 5.5 5.563 3.02-2.072 4.694-3.975 5.5-5.563.836-1.65.733-2.941.275-3.837C11.8.768 9.1.245 7.627 1.76L7 2.405zm0 10.72C-6.416 4.26 2.869-2.66 6.846 1c.052.048.104.098.154.15.05-.052.1-.101.154-.149C11.13-2.662 20.416 4.259 7 13.125z" fill="#464646"/></svg>
